X:1166
L:1/16
M:4/4
K:C
 B2E2A2 |[M:2/4][K:G]SOSOO .!fermata!PMTuC2O(MDEF) | G>FG>B A>GE>F | G>AG>E D2 z2 | (d4 e>)dB>G | 
 B>AA>B A2D2 | G>FG>B A>GE>F | G>AG>E D2 z2 | (d4 e>)dB>G | A>cB>A G2 :: E2 | e2 E>F G>FE2 | 
 ^d>ef>d e2 z2 | e2 E>F G>FE2 | ^d>ef>d e2 z2 | e^de>f g>fe>g | f>ed>f e2 (3(def) | 
 g3/2f3/4g/e d>BG>B | A>cB>A G2 :|

